resources/svg/camera-o.svg

<svg xmlns="http://www.w3.org/2000/svg" viewBox="0 0 15 15" fill="none"><path d="M7 1.5L2 1.5M14.5 12.5L14.5 4.5C14.5 3.94772 14.0523 3.5 13.5 3.5L1.5 3.5C0.947717 3.5 0.500001 3.94772 0.500001 4.5L0.5 12.5C0.5 13.0523 0.947716 13.5 1.5 13.5L13.5 13.5C14.0523 13.5 14.5 13.0523 14.5 12.5ZM9.5 10.5C8.39543 10.5 7.5 9.60457 7.5 8.5C7.5 7.39543 8.39543 6.5 9.5 6.5C10.6046 6.5 11.5 7.39543 11.5 8.5C11.5 9.60457 10.6046 10.5 9.5 10.5Z" stroke="black"/></svg>

<svg xmlns="http://www.w3.org/2000/svg" viewBox="0 0 15 15" fill="none"><path d="M7 1.5H2m12.5 11v-8a1 1 0 00-1-1h-12a1 1 0 00-1 1v8a1 1 0 001 1h12a1 1 0 001-1zm-5-2a2 2 0 110-4 2 2 0 010 4z" stroke="currentColor"/></svg>
